X: 20576
T: John O'Connor's
R: jig
M: 6/8
K: Gmajor
A|:GFE FED|E2FG2A|B2G BcA|B2Gc2A|
Bcd EFG|A2G FED|EFG AGF|GAG DEF:|
|:GAG GBd|e2a g2e|dBG GBd|e2f gfe|
dBG cBA|dBG FED|EFG AGF|GAG DEF:|

